public/images/menu/statistics_4.svg

<svg width="120" height="119" viewBox="0 0 120 119" fill="none" xmlns="http://www.w3.org/2000/svg">
<path d="M20.3119 67.6296C20.3049 67.6186 20.2854 67.5889 20.2779 67.5782C19.5603 66.5048 18.1078 66.2167 17.0309 66.9316C15.9558 67.6453 15.6642 69.094 16.3758 70.1678C16.8246 70.8553 17.5756 71.2304 18.3427 71.2304C18.7767 71.2304 19.2157 71.1103 19.6076 70.8591C20.6965 70.161 21.0117 68.7151 20.3119 67.6296Z" fill="#195A00"/>
<path d="M16.7474 61.8239C14.4634 57.8309 12.4103 53.6519 10.6452 49.4035C10.15 48.2107 8.77815 47.6452 7.58307 48.139C6.38705 48.6328 5.81939 49.9999 6.31486 51.1923C8.15471 55.6211 10.295 59.9772 12.6758 64.1394C13.1082 64.8952 13.8995 65.3191 14.7137 65.3191C15.1075 65.3191 15.5066 65.22 15.8727 65.0118C16.997 64.3722 17.3889 62.945 16.7474 61.8239Z" fill="#195A00"/>
<path d="M68.3436 34.8444C67.8791 34.7832 67.4073 34.7523 66.9414 34.7523C61.6171 34.7523 57.0772 38.7264 56.3816 43.9963C55.6142 49.8079 59.7315 55.1586 65.56 55.9238C66.0245 55.985 66.4963 56.0158 66.9622 56.0158C72.2863 56.0158 76.8262 52.0418 77.522 46.7714C78.2891 40.96 74.1719 35.6095 68.3436 34.8444ZM72.8748 46.1615C72.4848 49.1147 69.943 51.3416 66.9622 51.3416C66.7002 51.3416 66.4342 51.3243 66.1719 51.2898C62.9059 50.8609 60.5992 47.8628 61.029 44.6062C61.419 41.6532 63.9606 39.4265 66.9414 39.4265C67.2034 39.4265 67.4694 39.4438 67.7317 39.4784C70.9975 39.9075 73.3047 42.9054 72.8748 46.1615Z" fill="#195A00"/>
<path d="M67.7339 63.9134C67.2691 63.8521 66.7976 63.8213 66.3316 63.8213C61.0073 63.8213 56.4675 67.7953 55.7718 73.0655C55.3999 75.8808 56.1499 78.6717 57.8836 80.9247C59.617 83.1776 62.1267 84.6223 64.9502 84.9932C65.4145 85.0542 65.8861 85.0848 66.3518 85.0848C71.6761 85.0848 76.2162 81.1108 76.9121 75.8404C77.6796 70.0293 73.5621 64.679 67.7339 63.9134ZM72.2651 75.2307C71.8751 78.1839 69.3331 80.4108 66.3523 80.4108C66.0905 80.4108 65.8244 80.3933 65.5624 80.359C63.9804 80.151 62.5741 79.3414 61.6026 78.0792C60.6311 76.817 60.2109 75.2531 60.4193 73.6754C60.8093 70.7224 63.3511 68.4955 66.3316 68.4955C66.5937 68.4955 66.8597 68.5128 67.122 68.5474C70.3875 68.9762 72.6947 71.9743 72.2651 75.2307Z" fill="#195A00"/>
<path d="M52.2752 54.2317L45.0715 53.2859C43.7887 53.116 42.6107 54.0181 42.4418 55.2976C42.2725 56.5773 43.1761 57.7512 44.4593 57.9197L51.663 58.8655C51.7669 58.8793 51.87 58.8858 51.9719 58.8858C53.13 58.8858 54.1373 58.0298 54.2925 56.8538C54.462 55.5743 53.5587 54.4002 52.2752 54.2317Z" fill="#195A00"/>
<path d="M48.6225 71.4779L47.9864 66.6581C47.8174 65.3784 46.6404 64.4773 45.3569 64.6462C44.0735 64.8147 43.1702 65.9883 43.3392 67.2681L43.9755 72.0879C44.1307 73.2641 45.1378 74.1201 46.2961 74.1201C46.398 74.1201 46.5011 74.1136 46.6047 74.0998C47.8882 73.9313 48.7915 72.7577 48.6225 71.4779Z" fill="#195A00"/>
<path d="M119.303 0.670543C118.663 0.0439349 117.716 -0.165244 116.869 0.135509L19.5206 34.5564C16.1386 32.5055 11.8488 32.0254 7.91437 33.6409C1.38351 36.3238 -1.72923 43.7754 0.975926 50.2523C7.35539 65.5242 16.5661 79.1946 28.3531 90.8833C40.14 102.572 53.9251 111.706 69.3256 118.032C70.925 118.689 72.5827 119 74.2149 119C79.2481 119 84.0339 116.042 86.0764 111.151C87.4508 107.861 87.321 104.319 86.0064 101.278L119.874 3.0768C120.165 2.23265 119.943 1.29738 119.303 0.670543ZM34.2605 34.2796L44.5777 30.632C45.789 31.9117 46.3794 33.6735 46.1429 35.4552C45.9343 37.024 45.1224 38.4188 43.8565 39.3822C42.5907 40.3456 41.0232 40.7618 39.44 40.5557C37.8582 40.3491 36.4519 39.5442 35.4804 38.2886C34.5854 37.1319 34.1595 35.7206 34.2605 34.2796ZM81.7457 109.372C80.0296 113.481 75.2619 115.439 71.1195 113.737C41.1101 101.41 17.7375 78.2324 5.30695 48.4731C4.47562 46.4829 4.47562 44.2909 5.30695 42.3005C6.13828 40.3102 7.70133 38.7602 9.70828 37.9358C11.7152 37.1114 13.9259 37.1114 15.9328 37.9358C17.9398 38.7602 19.5028 40.3102 20.3342 42.3005C25.6547 55.0388 33.3375 66.4409 43.1691 76.1905C53.0007 85.9401 64.4987 93.5587 77.3441 98.8351C81.4874 100.537 83.462 105.264 81.7457 109.372ZM102.568 38.8908C102.356 38.8857 102.144 38.8736 101.932 38.8462C100.35 38.6396 98.9439 37.8345 97.9726 36.5792C97.0011 35.3239 96.5809 33.7683 96.789 32.1997C97.2191 28.9611 100.225 26.6736 103.492 27.0994C104.5 27.231 105.446 27.6186 106.253 28.2083L102.568 38.8908ZM107.811 23.6891C106.669 23.0725 105.414 22.6618 104.104 22.4907C98.2745 21.7277 92.9089 25.813 92.1416 31.593C91.7699 34.3928 92.5199 37.1686 94.2536 39.4091C95.9235 41.5672 98.3141 42.977 101.011 43.407L96.3524 56.9151L90.995 52.8385C89.9682 52.0575 88.4966 52.249 87.7089 53.2675C86.9209 54.286 87.1147 55.7449 88.1415 56.5263L94.7521 61.5563L82.6363 96.688C81.62 95.8118 80.4498 95.0787 79.1389 94.5402C54.2998 84.3371 34.9545 65.1531 24.6661 40.5215C24.3085 39.6648 23.8641 38.8695 23.3515 38.1369L29.6278 35.9177C29.847 37.7929 30.5728 39.5816 31.7618 41.1181C33.4953 43.3587 36.0052 44.7955 38.8285 45.1639C39.3015 45.2257 39.773 45.2564 40.2422 45.2564C42.5738 45.2564 44.8294 44.501 46.7103 43.07C48.9699 41.3506 50.4186 38.862 50.7905 36.0618C51.124 33.5482 50.5325 31.0585 49.2043 28.996L78.3388 18.6946L79.4429 21.3382C79.817 22.2332 80.6896 22.7736 81.6092 22.7736C81.9081 22.7736 82.2118 22.7164 82.5053 22.596C83.701 22.1049 84.2689 20.745 83.7737 19.5592L82.7598 17.1316L113.866 6.13291L107.811 23.6891Z" fill="#195A00"/>
</svg>

<svg width="120" height="119" fill="none" xmlns="http://www.w3.org/2000/svg"><path d="M20.312 67.63a2.345 2.345 0 0 0-3.281-.698 2.336 2.336 0 0 0-.655 3.236 2.344 2.344 0 0 0 3.232.691 2.333 2.333 0 0 0 .704-3.23ZM16.747 61.824a110.482 110.482 0 0 1-6.102-12.42 2.346 2.346 0 0 0-3.062-1.265 2.334 2.334 0 0 0-1.268 3.053c1.84 4.43 3.98 8.785 6.36 12.947a2.344 2.344 0 0 0 3.198.873 2.333 2.333 0 0 0 .874-3.188ZM68.344 34.844a10.774 10.774 0 0 0-1.403-.092c-5.324 0-9.864 3.974-10.56 9.244-.767 5.812 3.35 11.163 9.179 11.928.465.061.936.092 1.402.092 5.324 0 9.864-3.974 10.56-9.245.767-5.811-3.35-11.162-9.178-11.927Zm4.53 11.317a5.98 5.98 0 0 1-6.702 5.129c-3.266-.43-5.573-3.427-5.143-6.684a5.98 5.98 0 0 1 6.703-5.128c3.266.43 5.573 3.427 5.143 6.683ZM67.734 63.913a10.76 10.76 0 0 0-1.402-.092c-5.325 0-9.864 3.974-10.56 9.245a10.538 10.538 0 0 0 2.112 7.859 10.598 10.598 0 0 0 7.066 4.068c.465.061.936.092 1.402.092 5.324 0 9.864-3.974 10.56-9.245.768-5.81-3.35-11.161-9.178-11.927Zm4.531 11.318a5.98 5.98 0 0 1-10.662 2.848 5.904 5.904 0 0 1-1.184-4.404 5.98 5.98 0 0 1 6.703-5.128c3.266.43 5.573 3.427 5.143 6.684ZM52.275 54.232l-7.203-.946a2.342 2.342 0 0 0-2.63 2.012 2.338 2.338 0 0 0 2.017 2.622l7.204.945a2.345 2.345 0 0 0 2.63-2.011 2.338 2.338 0 0 0-2.018-2.622ZM48.623 71.478l-.637-4.82a2.342 2.342 0 0 0-2.63-2.012 2.338 2.338 0 0 0-2.017 2.622l.636 4.82a2.342 2.342 0 0 0 2.63 2.012 2.338 2.338 0 0 0 2.018-2.622Z" fill="#195A00"/><path d="M119.303.67a2.357 2.357 0 0 0-2.434-.534l-97.348 34.42a12.906 12.906 0 0 0-11.607-.915C1.384 36.324-1.729 43.775.976 50.252c6.38 15.272 15.59 28.943 27.377 40.631 11.787 11.689 25.572 20.823 40.973 27.149 1.599.657 3.257.968 4.889.968 5.033 0 9.819-2.958 11.861-7.849a12.577 12.577 0 0 0-.07-9.873l33.868-98.201a2.312 2.312 0 0 0-.571-2.406ZM34.261 34.28l10.317-3.648a5.882 5.882 0 0 1 1.565 4.823 5.878 5.878 0 0 1-2.287 3.927 5.971 5.971 0 0 1-4.416 1.174 5.946 5.946 0 0 1-3.96-2.267 5.846 5.846 0 0 1-1.22-4.01Zm47.485 75.092c-1.716 4.109-6.484 6.067-10.626 4.365C41.11 101.41 17.736 78.232 5.306 48.473a7.95 7.95 0 0 1 0-6.172 8.046 8.046 0 0 1 4.401-4.365 8.142 8.142 0 0 1 6.225 0 8.046 8.046 0 0 1 4.401 4.364c5.32 12.739 13.003 24.14 22.835 33.89S64.5 93.56 77.344 98.835c4.143 1.702 6.118 6.429 4.402 10.537Zm20.822-70.481a5.945 5.945 0 0 1-4.595-2.312 5.85 5.85 0 0 1-1.184-4.38c.43-3.238 3.436-5.525 6.703-5.1a5.995 5.995 0 0 1 2.761 1.11l-3.685 10.682Zm5.243-15.202a10.727 10.727 0 0 0-3.707-1.198c-5.83-.763-11.195 3.322-11.962 9.102-.372 2.8.378 5.576 2.112 7.816a10.599 10.599 0 0 0 6.757 3.998l-4.659 13.508-5.357-4.076a2.357 2.357 0 0 0-3.286.428 2.311 2.311 0 0 0 .432 3.26l6.611 5.03-12.116 35.131a12.786 12.786 0 0 0-3.497-2.148c-24.84-10.203-44.184-29.387-54.473-54.019a12.668 12.668 0 0 0-1.314-2.384l6.276-2.22a10.46 10.46 0 0 0 2.134 5.201 10.61 10.61 0 0 0 7.066 4.046c.473.062.945.092 1.414.092a10.64 10.64 0 0 0 6.468-2.186 10.486 10.486 0 0 0 4.08-7.008 10.484 10.484 0 0 0-1.586-7.066L78.34 18.695l1.104 2.643a2.345 2.345 0 0 0 3.062 1.258 2.318 2.318 0 0 0 1.269-3.037l-1.014-2.427 31.106-11-6.055 17.557Z" fill="#195A00"/></svg>
